assets/icons/qvision/thumb_down.svg

<svg xmlns="http://www.w3.org/2000/svg" height="24" viewBox="0 0 24 24" width="24"><path d="M0 0h24v24H0z" fill="none"/><path d="M15 3H6c-.83 0-1.54.5-1.84 1.22l-3.02 7.05c-.09.23-.14.47-.14.73v2c0 1.1.9 2 2 2h6.31l-.95 4.57-.03.32c0 .41.17.79.44 1.06L9.83 23l6.59-6.59c.36-.36.58-.86.58-1.41V5c0-1.1-.9-2-2-2zm4 0v12h4V3h-4z"/></svg>

<svg width="24" height="24" viewBox="0 0 24 24" fill="none" xmlns="http://www.w3.org/2000/svg">
<g clip-path="url(#clip0_147_4873)">
<path d="M15 3H6C5.17 3 4.46 3.5 4.16 4.22L1.14 11.27C1.05 11.5 1 11.74 1 12V14C1 15.1 1.9 16 3 16H9.31L8.36 20.57L8.33 20.89C8.33 21.3 8.5 21.68 8.77 21.95L9.83 23L16.42 16.41C16.78 16.05 17 15.55 17 15V5C17 3.9 16.1 3 15 3ZM19 3V15H23V3H19Z" fill="#323232"/>
</g>
<defs>
<clipPath id="clip0_147_4873">
<rect width="24" height="24" fill="white"/>
</clipPath>
</defs>
</svg>
